X:1
T:Le rossi!!gnol
T:Le rossignol
T:Jean de Castro
T:Source : Livre de chansons à 3 parties---Paris---A.le Roy & R.Ballard---1575. Editor : André Vierendeels (30/09/15). 
T:Notes : Original clefs : G2, C1, C3 Editorial accidentals above the staff "en ses lacz = enlacé"
C:Jean de Castro
%%score [ 1 2 3 ]
L:1/8
Q:1/4=96
M:2/2
K:C
V:1 treble nm="Superius" snm="S"
V:2 treble nm="Altus" snm="A"
V:3 treble-8 nm="Tenor" snm="T"
V:1
 z8 | g4 f2 e2 | d4 z2 c2 | B2 A2 G4 | z2 A2 B2 d2 | d2 ^c2 d4 | z2 e2 d3 d | e2 c2 c2 c2 | %8
w: |Le ros- si-|gnol, le|ros- si- gnol,|plai- sant et|gra- ti- eux,|et gra- ti-|eux, ha- bi- ter|
 G4 z2 d2 | d2 d2 A4 | z2 A2 A2 ^F2 | G2 g2 f2 e2 | d2 c2 B4 | c2 e2 d2 c2 | d2 g2 f2 e2 | %15
w: veut, ha-|bi- ter veut,|ha- bi- ter|veut tou- jours au|vert bo- ca-|ge, aux chans vol-|ler, aux chans vol-|
 d4 z2 c2 | B2 A2 G4 | z2 A2 B2 d2 | d2 ^c2 d4 | z2 e4 d2 | e2 c2 c2 c2 | G4 z2 d2 | d2 d2 A4 | %23
w: ler, aux|chans vol- ler|et par tous|au- tres lieux,|au- tres|lieux, sa li- ber-|té, sa|li- ber- té,|
 z2 A2 A2 ^F2 |"^-natural" G2 g2 f2 e2 | d2 c2 B4 | c4 e4- | e2 g2 f4 | e4 e4- | e2 c2 A4 | %30
w: sa li- ber-|té ay- mant mieux|que sa ca-|ge: mais|_ le mien|coeur, mais|_ le mien|
 B2 e4 dc | B2 A2 B4 | ^c4 e4 | d4 d4 | g6 f2 | e4 e4 | d2 c2 d4 | e4 e4 | c8- | c8 | c8 | d4 d4 | %42
w: coeur, mais _ _|_ _ _|* le|mien coeur|qui de-|meu- r'en|ho- * ta-|ge sous|tri-||ste|deuil qui|
 e4 d4 | z2 c2 B2 B2 | c4 A4 | G2 G2 G2 G2 | c4 z2 B2 | c3 d e2 e2 | c2 c2 f4- | f2 e2 c2 d2 | %50
w: le tient,|qui le tient|en ses|lacz. Du ros- si-|gnol, du|ros- si- gnol, du|ros- si- gnol|_ ne cher- che|
 d2 e2 f4 | e4 z2 g2 | f2 d2 e4 | z8 |"^-natural" g4 f2 d2 | e2 A2 c2 B2 | c2 d2 e4 | z2 c2 g2 g2 | %58
w: l'a- van- ta-|ge ni|de son chant,||ni de son|chant re- ce voir|le sou- las,|ni de son|
 f2 e2 d4 | f2 e4 d2 | e4 z2 c2 | A2 A2 B3 A | G2 G2 c4- | c4 B4 | !fermata!c8 |] %65
w: chant re- ce|voir le sou-|las, ni|de son chant re-|ce- voir le|_ sou-|las.|
V:2
 c4 B2 A2 | G4 z2 A2 | B2 B2 c3 c | d2 D2 E4 | D2 ^F2 z2 G2 | F2 E2 D2 F2 | E2 c2 c2 B2 | %7
w: Le ros- si-|gnol plai-|sant et gra- ti-|eux, le ros-|si- gnol, le-|ros- si- gnol, plai-|sant et gra- ti-|
 c2 A2 A2 A2 | E2 G2 G2 G2 | ^F4 z2 A2 | A2 E2 F2 D2- | D2 D2 z2 C2 | D2 E2 D4 | E2 c2 B2 A2 | %14
w: eux, ha- bi- ter|veut, ha- bi- ter|veut, ha-|bi- ter veut tou-|* jours au|vert bo- ca-|ge, aux chans vol-|
 G4 z2 A2 | B2 B2 c2 c2 | d2 D2 E4 | D2 ^F2 z2 G2 |"^-natural" F2 E2 D2 F2 | %19
w: ler, et|par tous au- tres|lieux, aux chans|vol- ler aux|chans vol- ler et|
"^-natural" E2 c2 c2 B2 | c2 A2 A2 A2 | E2 G2 G2 G2 | ^F4 z2 A2 | A2 E2 F2 D2- | D2 D2 z2 C2 | %25
w: par tous au- tres|lieux, sa li- ber-|té, sa li- ber-|té, sa|li- ber- té ay-|* mant mieux|
 D2 E2 D4 | E4 c4- | c2 G2 A4 | c4 G4- | G2 A2 D4 | G2 C2 c2 BA | G2 A4 G2 |"^-natural" A2 A2 c4- | %33
w: que sa ca-|ge: mais|_ le mien|coeur, mais|_ le mien|coeur, mais le _ _|_ mien coeur|qui de- meu-|
 c4 B4 | c4 c4 | G2 F2 G2 A2 | B2 c4 B2 | c4 G4 | A8- | A4 A4 | G4 A4- | A4 B4 | c4 z2 G2 | E4 G4 | %44
w: * r'en|ho- ta-|||ge sous|tri-|* ste|deuil qui|_ le|tient, qui|le tient|
 G4 F4 | G2 C2 E3 E | G4 z2 G2 | G3 G c4 | z2 A2 A3 A | c6 B2 | A2 G2 A2 F2 | G4 G2 G2 | %52
w: en ses|lacz. Du ros- si-|gnol, du|ros- si- gnol,|du ros- si-|gnol ne|cher- che l'a- van-|ta- ge, ni|
 A2 B2 c2 c2 | B2 G2 A2 ^F2 | G4 z2 G2 | G2 ^F2 G2 G2 | A2 B2 c2 G2 | A2 A2 G2 E2 | F2 G2 A2 B2 | %59
w: de son chant, re-|ce- voir le sou-|las, ni|de son chant re-|ce- voir le sou-|las, ni de son|chant re- ce- voir|
 c4 A4 | ^G4 z2 A2 | ^F2 F2 G3 F | E4 A4 | D4 D4 | !fermata!E8 |] %65
w: le sou-|las, ni|de son chant re-|ce- voir|le sou-|las.|
V:3
 z8 | z8 | g4 f2 e2 | d4 z2 c2 | B2 A2 G4 | z2 A2 B2 d2 |"^-natural" c2 c2 g4 | z4 z2 c2 | %8
w: ||Le ros- si-|gnol, le|ros- si- gnol,|pla- sant et|gra- ti- eux,|ha-|
 c2 c2 G4 | z2 d2 d2 d2 | A4 d4 | G4 A4 | B2 c2 G4 | c4 z4 | z8 | g4 f2 e2 | d4 z2 c2 | B2 A2 G4 | %18
w: bi- ter veut,|ha- bi- ter|veut tou-|jours au|vert bo- ca-|ge,||aux chans vol-|ler, aux|chans vol- ler|
 z2 A2 B2 d2 | c2 c2 g4 | z4 z2 c2 | c2 c2 G4 | z2 d2 d2 d2 | A4 d4 | G4 A4 | B2 c2 G4 | c8 | z8 | %28
w: et par tous|au- tres lieux,|sa|li- ber- té,|sa li- ber-|té ay-|mant mieux|que sa ca-|ge:||
 z4 c4- | c2 A2 f4 | e8- | e8 | z4 c4 | g6 g2 | e4 c4 | c2 d2 e2 f2 | g8 | c4 c4 | F6 G2 | %39
w: mais|_ le mien|coeur|_|qui|de- meu-|r'en ho-|ta- * * *||ge sous|tri- *|
 A2 B2 c2 d2 | e4 f4- | f4 g4 | z4 G4 | A4 G4 | c4 d4 | e4 z2 c2 | c2 c2 g4 | c4 c2 c2 | f4 d4 | %49
w: |* ste|_ deuil|qui|le tient|en ses|lacz. Du|ros- si- gnol,|du ros- si-|gnol ne|
 a6 g2 | f2 e2 d4 | c8 | z8 | g4 f2 d2 | e2 c2 d2 g2 | c2 d2 e4 | z4 c4 | f2 f2 e2 c2 | %58
w: cher- che|l'a- van- ta-|ge,||ni de son|chant re- ce- voir|le sou- las,|ni|de son chant re-|
 d2 e2 f2 g2 | a4 f4 | e4 A4 | d4 G4 | c4 F4 | G4 G4 | !fermata!c8 |] %65
w: ce- voir le soi-|las, ni|de son|chant re-|ce- voir|le sou-|las.|

